X:2
T:John Ryan's polka
R:Polka
N:From Richard Robinson's Tunebook
O:Ireland
M:2/4
L:1/16
K:D
A|\
d2d2 BcdB|A2F2 A2F2|d2d2 BcdB|A2F2 (3EFE D2|\
d2d2 BcdB|A2F2 A2de|f2d2 e2c2|d4 d3::
e|\
f2d2 d2ef|g2f2 e2d2|f2d2 A2d2|f2df (a2a)g|\
f2d2 d2ef|g2f2 e2de|f2d2 e2c2|d4 d3:|
